images/linkimg/logo-uiiiuiii.svg

<svg height="90" viewBox="0 0 180 90" width="180" xmlns="http://www.w3.org/2000/svg"><g fill="none"><g fill="#085586" transform="translate(20 22)"><path d="m.28466667 0h22.76866663c-2.0253333 12.8146667-4.3306666 25.5873333-6.4866666 38.3833333 1.6706666 0 3.3413333-.0046666 5.012 0 2.2166666-12.782 4.3353333-25.5826666 6.58-38.35999997 4.844.02333334 9.6926666.07 14.5366666-.02333333h.4853334c-2.5246667 15.0126667-5.138 30.0113333-7.6673334 45.024-.1073333.5506667-.2286666 1.0966667-.3733333 1.6426667h-34.94866667c2.044-13.1086667 4.42866667-26.1706667 6.62666667-39.2606667-2.27266667-2.38933333-4.22333333-5.054-6.53333333-7.406z"/><path d="m48.2906667 0h13.3186666c-.2053333 2.324-.6813333 4.61066667-1.0826666 6.902-4.4893334-.02333333-8.9833334.00466667-13.4726667-.014.434-2.29133333.7326667-4.61066667 1.2366667-6.888z"/><path d="m66.696.06533333c4.5546667-.03733333 9.1093333-.00933333 13.6686667-.014-.4433334 2.282-.7513334 4.58266667-1.2086667 6.86-4.5313333-.03266666-9.0626667-.028-13.594 0 .3686667-2.282.8166667-4.55466666 1.134-6.846z"/><path d="m85.3626667.06066667c4.55-.02333334 9.0953333-.01866667 13.6453333 0-.4293333 2.27733333-.742 4.578-1.1993333 6.85066666-4.5406667-.07466666-9.086.06066667-13.6266667-.07.4806667-2.24466666.8166667-4.51733333 1.1806667-6.78066666z"/><path d="m104.034.06533333c11.988667-.03733333 23.972667-.00933333 35.961333-.01866666-.681333 5.292-1.75 10.52333333-2.580666 15.79200003-9.734667-.028-19.469334-.0466667-29.199334.0046666-.522666.5086667-.345333 1.4746667-.546 2.1653334 9.8-.042 19.604667.0046666 29.404667-.0233334-.378 2.184-.788667 4.3633334-1.134 6.5566667-12.012.014-24.024 0-36.036.0046667.816667-5.1753334 1.75-10.332 2.622667-15.5026667 9.184.02333333 18.368-.00933333 27.552.01866667.14-.72333334.28-1.44666667.415333-2.17466667-9.212-.00466667-18.424.03266667-27.631333-.01866667.452666-2.25866666.816666-4.53133333 1.171333-6.804z"/><path d="m46.676 9.06266667c4.55-.028 9.1-.00466667 13.6546667-.00933334-2.2026667 12.52999997-4.2373334 25.08799997-6.482 37.61333337h-13.566c2.1093333-12.5393334 4.2933333-25.0646667 6.3933333-37.60400003z"/><path d="m65.1933333 9.04866667c4.536.00466666 9.072.00466666 13.608 0-2.114 12.54400003-4.27 25.07866663-6.4166666 37.61800003h-13.5566667c2.0206667-12.5533334 4.2606667-25.074 6.3653333-37.61800003z"/><path d="m83.8553333 9.044c4.536.014 9.0766667.00933333 13.6126667.00466667-2.142 12.53933333-4.2653333 25.08333333-6.4306667 37.61800003h-13.5473333c2.0066667-12.558 4.2513333-25.0786667 6.3653333-37.6226667z"/></g><g fill="#16ace4" transform="translate(115.666667 48.133333)"><path d="m3.878.182c4.27933333.06066667 8.5586667-.06533333 12.838.06066667 1.498.07466666 3.3926667 1.26466666 2.94 2.99133333-1.064 5.76333333-2.016 11.55-3.1686667 17.2993333h-16.28666663c1.18533333-6.79 2.38-13.57999997 3.67733333-20.3513333z"/><path d="m26.32.21c4.522-.04666667 9.0486667 0 13.5706667-.01866667-1.316 6.77133334-2.3753334 13.58933337-3.7566667 20.34199997h-17.332c.9146667-5.712 2.044-11.3913333 3.024-17.0893333.2613333-2.11866667 2.5853333-3.16866667 4.494-3.234z"/></g></g></svg>

<?xml version="1.0" encoding="UTF-8"?>
<svg width="180px" height="90px" viewBox="0 0 180 90" version="1.1" xmlns="http://www.w3.org/2000/svg" xmlns:xlink="http://www.w3.org/1999/xlink">
    <!-- Generator: Sketch 56.2 (81672) - https://sketch.com -->
    <title>logo_uiiiuiii</title>
    <desc>Created with Sketch.</desc>
    <g id="logo_uiiiuiii" stroke="none" stroke-width="1" fill="none" fill-rule="evenodd">
        <g id="logo" transform="translate(20.000000, 22.000000)" fill-rule="nonzero">
            <g id="#085586ff" fill="#085586">
                <path d="M0.284666667,0 L23.0533333,0 C21.028,12.8146667 18.7226667,25.5873333 16.5666667,38.3833333 C18.2373333,38.3833333 19.908,38.3786667 21.5786667,38.3833333 C23.7953333,25.6013333 25.914,12.8006667 28.1586667,0.0233333333 C33.0026667,0.0466666667 37.8513333,0.0933333333 42.6953333,0 L43.1806667,0 C40.656,15.0126667 38.0426667,30.0113333 35.5133333,45.024 C35.406,45.5746667 35.2846667,46.1206667 35.14,46.6666667 L0.191333333,46.6666667 C2.23533333,33.558 4.62,20.496 6.818,7.406 C4.54533333,5.01666667 2.59466667,2.352 0.284666667,0 Z" id="路径"></path>
                <path d="M48.2906667,0 L61.6093333,0 C61.404,2.324 60.928,4.61066667 60.5266667,6.902 C56.0373333,6.87866667 51.5433333,6.90666667 47.054,6.888 C47.488,4.59666667 47.7866667,2.27733333 48.2906667,0 Z" id="路径"></path>
                <path d="M66.696,0.0653333333 C71.2506667,0.028 75.8053333,0.056 80.3646667,0.0513333333 C79.9213333,2.33333333 79.6133333,4.634 79.156,6.91133333 C74.6246667,6.87866667 70.0933333,6.88333333 65.562,6.91133333 C65.9306667,4.62933333 66.3786667,2.35666667 66.696,0.0653333333 Z" id="路径"></path>
                <path d="M85.3626667,0.0606666667 C89.9126667,0.0373333333 94.458,0.042 99.008,0.0606666667 C98.5786667,2.338 98.266,4.63866667 97.8086667,6.91133333 C93.268,6.83666667 88.7226667,6.972 84.182,6.84133333 C84.6626667,4.59666667 84.9986667,2.324 85.3626667,0.0606666667 Z" id="路径"></path>
                <path d="M104.034,0.0653333333 C116.022667,0.028 128.006667,0.056 139.995333,0.0466666667 C139.314,5.33866667 138.245333,10.57 137.414667,15.8386667 C127.68,15.8106667 117.945333,15.792 108.215333,15.8433333 C107.692667,16.352 107.87,17.318 107.669333,18.0086667 C117.469333,17.9666667 127.274,18.0133333 137.074,17.9853333 C136.696,20.1693333 136.285333,22.3486667 135.94,24.542 C123.928,24.556 111.916,24.542 99.904,24.5466667 C100.720667,19.3713333 101.654,14.2146667 102.526667,9.044 C111.710667,9.06733333 120.894667,9.03466667 130.078667,9.06266667 C130.218667,8.33933333 130.358667,7.616 130.494,6.888 C121.282,6.88333333 112.07,6.92066667 102.862667,6.86933333 C103.315333,4.61066667 103.679333,2.338 104.034,0.0653333333 Z" id="路径"></path>
                <path d="M46.676,9.06266667 C51.226,9.03466667 55.776,9.058 60.3306667,9.05333333 C58.128,21.5833333 56.0933333,34.1413333 53.8486667,46.6666667 L40.2826667,46.6666667 C42.392,34.1273333 44.576,21.602 46.676,9.06266667 Z" id="路径"></path>
                <path d="M65.1933333,9.04866667 C69.7293333,9.05333333 74.2653333,9.05333333 78.8013333,9.04866667 C76.6873333,21.5926667 74.5313333,34.1273333 72.3846667,46.6666667 L58.828,46.6666667 C60.8486667,34.1133333 63.0886667,21.5926667 65.1933333,9.04866667 Z" id="路径"></path>
                <path d="M83.8553333,9.044 C88.3913333,9.058 92.932,9.05333333 97.468,9.04866667 C95.326,21.588 93.2026667,34.132 91.0373333,46.6666667 L77.49,46.6666667 C79.4966667,34.1086667 81.7413333,21.588 83.8553333,9.044 Z" id="路径"></path>
            </g>
            <g id="#16ace4ff" transform="translate(95.666667, 26.133333)" fill="#16ACE4">
                <path d="M3.878,0.182 C8.15733333,0.242666667 12.4366667,0.116666667 16.716,0.242666667 C18.214,0.317333333 20.1086667,1.50733333 19.656,3.234 C18.592,8.99733333 17.64,14.784 16.4873333,20.5333333 L0.200666667,20.5333333 C1.386,13.7433333 2.58066667,6.95333333 3.878,0.182 Z" id="路径"></path>
                <path d="M26.32,0.21 C30.842,0.163333333 35.3686667,0.21 39.8906667,0.191333333 C38.5746667,6.96266667 37.5153333,13.7806667 36.134,20.5333333 L18.802,20.5333333 C19.7166667,14.8213333 20.846,9.142 21.826,3.444 C22.0873333,1.32533333 24.4113333,0.275333333 26.32,0.21 Z" id="路径"></path>
            </g>
        </g>
    </g>
</svg>
